ui/StatusQ/src/assets/img/icons/public-chat.svg

<svg fill="none" height="24" viewBox="0 0 24 24" width="24" xmlns="http://www.w3.org/2000/svg"><path clip-rule="evenodd" d="m2 10.7149c0-1.54128 1.16788-2.83178 2.70149-2.98514l3.63626-.36363c2.42115-.24211 4.77785-.92401 6.95425-2.0122l3.8136-1.90681c1.3298-.6649 2.8944.30209 2.8944 1.78886v11.52782c0 1.4868-1.5646 2.4538-2.8944 1.7889l-3.8136-1.9068c-.6152-.3076-1.2447-.5827-1.886-.8246-.3201-.1207-.656.1201-.656.4623v2.2164c0 1.2426-1.0074 2.25-2.25 2.25h-.5c-2.07107 0-3.75-1.6789-3.75-3.75v-2.1226c0-.2569-.19465-.472-.45025-.4975l-1.09826-.1098c-1.5336-.1534-2.70149-1.4439-2.70149-2.9852zm18.5-5.47892v11.52782c0 .3717-.3912.6135-.7236.4473l-3.8136-1.9069c-2.3396-1.1697-4.873-1.9028-7.47579-2.1631l-3.63626-.3636c-.76681-.0767-1.35075-.7219-1.35075-1.4926v-.57c0-.77066.58394-1.4159 1.35074-1.49258l3.63627-.36363c2.60279-.26028 5.13619-.99332 7.47579-2.16311l3.8136-1.90681c.3324-.16623.7236.07552.7236.44721zm-12.20025 9.39392c-.29434-.0294-.54975.2017-.54975.4975v1.8726c0 1.2426 1.00736 2.25 2.25 2.25h.5c.4142 0 .75-.3358.75-.75v-2.9661c0-.229-.1553-.4293-.3783-.4811-.8333-.1935-1.67959-.3337-2.53395-.4191z" fill="#000" fill-rule="evenodd"/></svg>

<svg width="24" height="24" viewBox="0 0 24 24" fill="none" xmlns="http://www.w3.org/2000/svg">
<path fill-rule="evenodd" clip-rule="evenodd" d="M2 10.7149C2 9.17362 3.16788 7.88312 4.70149 7.72976L8.33775 7.36613C10.7589 7.12402 13.1156 6.44212 15.292 5.35393L19.1056 3.44712C20.4354 2.78222 22 3.74921 22 5.23598V16.7638C22 18.2506 20.4354 19.2176 19.1056 18.5527L15.292 16.6459C14.6768 16.3383 14.0473 16.0632 13.406 15.8213C13.0859 15.7006 12.75 15.9414 12.75 16.2836V18.5C12.75 19.7426 11.7426 20.75 10.5 20.75H10C7.92893 20.75 6.25 19.0711 6.25 17V14.8774C6.25 14.6205 6.05535 14.4054 5.79975 14.3799L4.70149 14.2701C3.16789 14.1167 2 12.8262 2 11.2849V10.7149ZM20.5 5.23598V16.7638C20.5 17.1355 20.1088 17.3773 19.7764 17.2111L15.9628 15.3042C13.6232 14.1345 11.0898 13.4014 8.48701 13.1411L4.85075 12.7775C4.08394 12.7008 3.5 12.0556 3.5 11.2849V10.7149C3.5 9.94424 4.08394 9.299 4.85074 9.22232L8.48701 8.85869C11.0898 8.59841 13.6232 7.86537 15.9628 6.69558L19.7764 4.78877C20.1088 4.62254 20.5 4.86429 20.5 5.23598ZM8.29975 14.6299C8.00541 14.6005 7.75 14.8316 7.75 15.1274V17C7.75 18.2426 8.75736 19.25 10 19.25H10.5C10.9142 19.25 11.25 18.9142 11.25 18.5V15.5339C11.25 15.3049 11.0947 15.1046 10.8717 15.0528C10.0384 14.8593 9.19211 14.7191 8.33775 14.6337L8.29975 14.6299Z" fill="black"/>
</svg>
